spark-frontend/src/assets/icons/smallStar.svg

<svg width="16" height="16" viewBox="0 0 16 16" fill="none" xmlns="http://www.w3.org/2000/svg">
    <path d="M7.99992 10.26L5.49325 11.7733L6.15325 8.92L3.93992 7L6.85992 6.75333L7.99992 4.06L9.13992 6.75333L12.0599 7L9.84659 8.92L10.5066 11.7733L7.99992 10.26ZM14.6666 6.16L9.87325 5.75333L7.99992 1.33333L6.12658 5.75333L1.33325 6.16L4.96658 9.31333L3.87992 14L7.99992 11.5133L12.1199 14L11.0266 9.31333L14.6666 6.16Z"
          fill="#969696"/>
</svg>

<svg xmlns="http://www.w3.org/2000/svg" width="16" height="16" fill="none"><path fill="#969696" d="m8 10.26-2.507 1.513.66-2.853L3.94 7l2.92-.247L8 4.06l1.14 2.693L12.06 7 9.847 8.92l.66 2.853zm6.667-4.1-4.794-.407L8 1.333l-1.873 4.42-4.794.407 3.634 3.153L3.88 14 8 11.513 12.12 14l-1.093-4.687z"/></svg>
